X:143
T:Duke of Norfolk’s Hornpipe TS.143
M:C|
L:1/8
Q:1/2=90
S:Thomas Sands’ MS,1810,Lincolnshire
R:.hornpipe
C:Pencil note “Bonum” in MS
O:England;Lincolnshire
Z:vmp.Ruairidh Greig, 2011
K:Bb
BA|B2FE DBFB|GABc BAGF|GABc dBfB|bBfB BAGF|
BGFE DBFB|GBFB EBDB|DFBd EGBe|cAFAB2:|
|:ba|bfdB bfdB|fdcd BAGF|ecec dBdB|A2F2F2GA|
GBEB edcB|AcFc fedc|Bbab fdBf|d2B2B2:|]

